small/extra/apps/standard/preferences-system-hotcorners.svg

<?xml version="1.0" encoding="UTF-8" standalone="no"?>
<!-- Created with Inkscape (http://www.inkscape.org/) -->

<svg
   xmlns:dc="http://purl.org/dc/elements/1.1/"
   xmlns:cc="http://creativecommons.org/ns#"
   xmlns:rdf="http://www.w3.org/1999/02/22-rdf-syntax-ns#"
   xmlns:svg="http://www.w3.org/2000/svg"
   xmlns="http://www.w3.org/2000/svg"
   xmlns:sodipodi="http://sodipodi.sourceforge.net/DTD/sodipodi-0.dtd"
   xmlns:inkscape="http://www.inkscape.org/namespaces/inkscape"
   id="svg2"
   height="100%"
   width="100%"
   version="1.2"
   viewBox="0 0 512 512"
   inkscape:version="0.91+devel r13804 custom"
   sodipodi:docname="preferences-system-hotcorners.svg">
  <defs
     id="defs90" />
  <sodipodi:namedview
     pagecolor="#ffffff"
     bordercolor="#666666"
     borderopacity="1"
     objecttolerance="10"
     gridtolerance="10"
     guidetolerance="10"
     inkscape:pageopacity="0"
     inkscape:pageshadow="2"
     inkscape:window-width="1366"
     inkscape:window-height="709"
     id="namedview88"
     showgrid="false"
     inkscape:zoom="0.65186406"
     inkscape:cx="159.61236"
     inkscape:cy="155.29689"
     inkscape:window-x="0"
     inkscape:window-y="0"
     inkscape:window-maximized="0"
     inkscape:current-layer="svg2" />
  <metadata
     id="metadata175">
    <rdf:RDF>
      <cc:Work
         rdf:about="">
        <dc:format>image/svg+xml</dc:format>
        <dc:type
           rdf:resource="http://purl.org/dc/dcmitype/StillImage" />
      </cc:Work>
    </rdf:RDF>
  </metadata>
  <path
     inkscape:connector-curvature="0"
     style="fill:#e75177"
     id="path4"
     d="m 25.9985,-0.005 c -14.397,0 -26,11.603 -26,26 l 0,460 c 0,14.397 11.603,26 26,26 l 460,0 c 14.397,0 26,-11.603 26,-26 l 0,-460 c 0,-14.397 -11.6,-26 -26,-26 l -460,0" />
  <path
     style="color:#000000;opacity:0.25"
     d="M 112.43945 76.775391 C 73.209453 76.775391 40.998047 115.35469 40.998047 162.30469 L 40.998047 349.68555 C 40.998047 375.93555 51.077547 399.57645 66.810547 415.31445 L 163.50195 512.00586 L 486.00195 512.00586 C 500.39895 512.00586 512.00195 500.40286 512.00195 486.00586 L 512.00195 163.53516 L 446.66211 98.195312 L 445.19141 96.695312 C 432.78141 84.285313 416.87227 76.789062 399.57227 76.789062 L 112.45117 76.789062 L 112.43945 76.775391 z "
     id="path3571" />
  <path
     style="color:#000000;fill:#ffffff"
     d="M 112.43945 76.775391 C 73.209456 76.775391 40.998047 115.33492 40.998047 162.29492 L 40.998047 349.69531 C 40.998047 396.64931 73.219456 435.21484 112.43945 435.21484 L 399.54883 435.21484 C 438.77883 435.21484 470.98828 396.65131 470.98828 349.69531 L 470.98828 162.29492 C 470.98828 115.34092 438.76883 76.775391 399.54883 76.775391 L 112.43945 76.775391 z M 216.44141 110.62891 C 277.6084 110.60852 338.79297 110.83055 399.94922 110.68555 L 399.95117 110.68555 C 420.44417 109.82455 434.91016 129.65152 437.66016 148.10352 C 439.34716 215.36352 437.94534 282.74469 438.40234 350.05469 C 439.95134 371.10469 429.19203 396.20414 407.08203 401.24414 C 309.87203 402.66214 212.51219 401.47233 115.24219 401.86133 C 93.873186 404.15633 77.332906 383.90525 74.753906 364.15625 C 73.120906 296.50625 74.398828 228.73686 74.048828 161.04688 C 72.557828 140.19788 84.102142 115.32059 106.36914 111.05859 C 143.04789 110.74134 179.74121 110.64114 216.44141 110.62891 z M 237.24023 129.35352 L 237.24805 129.35547 C 205.59805 188.38547 156.22836 237.52422 97.318359 269.32422 C 97.310359 277.37422 97.331375 285.41484 97.359375 293.46484 C 167.49938 257.91684 226.05977 199.66453 261.25977 129.39453 C 253.24977 129.38253 245.25023 129.35652 237.24023 129.35352 z M 383.14453 129.37891 C 382.5968 129.3678 382.04448 129.37491 381.48633 129.39844 C 352.72828 129.46643 323.96922 129.43244 295.20117 129.39844 C 323.52912 179.40674 365.08016 220.95587 415.08789 249.28516 C 415.15689 220.17516 415.0718 191.07586 414.3418 162.00586 C 412.02067 146.42836 400.1241 129.72308 383.14453 129.37891 z M 295.20117 129.39844 C 295.20046 129.39717 295.19994 129.3958 295.19922 129.39453 L 295.19531 129.39844 C 295.19727 129.39844 295.19922 129.39844 295.20117 129.39844 z M 189.57812 129.39453 C 168.25612 129.44353 146.92337 129.54156 125.60938 129.72656 C 106.20337 133.44156 96.138453 155.11416 97.439453 173.28516 C 97.562453 197.03416 97.477437 220.79469 97.398438 244.55469 C 145.19144 217.00469 185.05766 177.19453 212.59766 129.39453 C 204.92266 129.40153 197.24812 129.37653 189.57812 129.39453 z M 278.35938 143.08594 C 274.58837 150.29194 270.58614 157.37322 266.36914 164.32422 C 302.65914 221.08022 354.57875 267.81531 414.96875 297.69531 C 414.98475 289.69531 414.98177 281.67578 415.00977 273.67578 C 358.50977 243.91178 310.71133 198.11594 278.36133 143.08594 L 278.35938 143.08594 z M 253.71875 183.81445 L 253.71484 183.81641 C 253.71484 183.81641 253.7168 183.81836 253.7168 183.81836 C 253.71762 183.81718 253.71793 183.81564 253.71875 183.81445 z M 253.7168 183.81836 C 214.34699 240.77975 159.988 287.40507 97.529297 317.31445 C 97.645297 328.30645 97.803359 339.30692 98.068359 350.29492 C 100.31636 367.50792 114.74919 385.15439 133.36719 383.15039 C 218.13719 382.81139 302.98703 383.84733 387.70703 382.61133 C 406.97603 378.21933 416.35781 356.36162 415.00781 338.01562 C 414.97081 332.53062 414.93683 327.03287 414.92383 321.54688 C 350.25465 290.95526 293.69671 243.14732 253.7168 183.81836 z "
     id="path10" />
</svg>

<?xml version="1.0" encoding="UTF-8" standalone="no"?>
<!-- Created with Inkscape (http://www.inkscape.org/) -->
<svg id="svg2" xmlns:rdf="http://www.w3.org/1999/02/22-rdf-syntax-ns#" xmlns="http://www.w3.org/2000/svg" height="100%" width="100%" version="1.2" xmlns:cc="http://creativecommons.org/ns#" xmlns:xlink="http://www.w3.org/1999/xlink" viewBox="0 0 512 512" xmlns:dc="http://purl.org/dc/elements/1.1/">
 <metadata id="metadata175">
  <rdf:RDF>
   <cc:Work rdf:about="">
    <dc:format>image/svg+xml</dc:format>
    <dc:type rdf:resource="http://purl.org/dc/dcmitype/StillImage"/>
   </cc:Work>
  </rdf:RDF>
 </metadata>
 <path id="path4" d="m26 0c-14.397 0-26 11.603-26 26v460c0 14.397 11.603 26 26 26h460c14.397 0 26-11.603 26-26v-460c0-14.397-11.6-26-26-26h-460" fill="#e75177"/>
 <g id="g6" style="color:#000000">
  <path id="path8" opacity=".25" d="m112.44 76.78c-39.23 0-71.44 38.58-71.44 85.53v187.38c0 26.25 10.08 49.892 25.813 65.63l96.69 96.69h322.5c14.397 0 26-11.603 26-26v-322.47l-65.34-65.34-1.47-1.5c-12.41-12.41-28.32-19.906-45.62-19.906h-287.12m282.84 282.84h75.22c-4.155 42.34-34.512 75.59-70.938 75.59h-75.22c4.156-42.34 34.512-75.59 70.938-75.59"/>
  <path id="path10" d="m112.44 76.78c-39.23 0-71.44 38.56-71.44 85.52v187.4c0 46.954 32.22 85.52 71.44 85.52h287.11c39.23 0 71.44-38.564 71.44-85.52v-187.4c0-46.954-32.22-85.52-71.44-85.52h-287.11" fill="#fff"/>
 </g>
 <g id="g12" style="word-spacing:0;letter-spacing:0" font-family="Gentium Book Basic" line-height="125%">
  <g id="g14" font-size="208.33px">
   <text id="text16" y="85.75" x="-216.97">
    <tspan id="tspan18" y="85.75" x="-216.97"/>
   </text>
   <text id="text20" y="363.87" x="-2575.8">
    <tspan id="tspan22" y="363.87" x="-2575.8"/>
   </text>
   <text id="text24" y="136.58" x="-2287.5901">
    <tspan id="tspan26" y="136.58" x="-2287.5901"/>
   </text>
   <text id="text28" y="-120.32" x="1907.01">
    <tspan id="tspan30" y="-120.32" x="1907.01"/>
   </text>
   <text id="text32" y="24.724001" x="-220.92">
    <tspan id="tspan34" y="24.724001" x="-220.92"/>
   </text>
   <text id="text36" y="302.82999" x="-2579.75">
    <tspan id="tspan38" y="302.82999" x="-2579.75"/>
   </text>
   <text id="text40" y="75.550003" x="-2291.54">
    <tspan id="tspan42" y="75.550003" x="-2291.54"/>
   </text>
  </g>
  <text id="text44" y="227.83" x="52.893002" font-size="129.23px">
   <tspan id="tspan46" y="227.83" x="52.893002"/>
  </text>
 </g>
 <text id="text48" style="text-anchor:middle" transform="scale(4.0128 .2492)" font-size="46.954px" y="565.09998" x="210.25999" font-family="Arial"/>
 <text id="text50" style="word-spacing:0;letter-spacing:0" font-size="129.23px" line-height="125%" y="147.83" x="634.15997" font-family="Gentium Book Basic">
  <tspan id="tspan52" y="147.83" x="634.15997"/>
 </text>
 <text id="text54" style="text-anchor:middle" transform="scale(4.0128 .2492)" font-size="46.954px" y="244.07001" x="355.10999" font-family="Arial"/>
 <text id="text56" style="word-spacing:0;letter-spacing:0" font-size="129.23px" line-height="125%" y="-33.426998" x="-437.42001" font-family="Gentium Book Basic">
  <tspan id="tspan58" y="-33.426998" x="-437.42001"/>
 </text>
 <text id="text60" style="text-anchor:middle" transform="scale(4.0128 .2492)" font-size="46.954px" y="-483.29001" x="88.07" font-family="Arial"/>
 <text id="text62" style="word-spacing:0;letter-spacing:0" font-size="129.23px" line-height="125%" y="-249.89999" x="660.63" font-family="Gentium Book Basic">
  <tspan id="tspan64" y="-249.89999" x="660.63"/>
 </text>
 <text id="text66" style="text-anchor:middle" transform="scale(4.0128 .2492)" font-size="46.954px" y="-1351.95" x="361.70999" font-family="Arial"/>
 <text id="text68" style="word-spacing:0;letter-spacing:0" font-size="129.23px" line-height="125%" y="-329.91" x="1241.9" font-family="Gentium Book Basic">
  <tspan id="tspan70" y="-329.91" x="1241.9"/>
 </text>
 <text id="text72" style="text-anchor:middle" transform="scale(4.0128 .2492)" font-size="46.954px" y="-1672.99" x="506.56" font-family="Arial"/>
 <text id="text74" style="word-spacing:0;letter-spacing:0" font-size="129.23px" line-height="125%" y="-802.31" x="852.78003" font-family="Gentium Book Basic">
  <tspan id="tspan76" y="-802.31" x="852.78003"/>
 </text>
 <text id="text78" style="text-anchor:middle" transform="scale(4.0128 .2492)" font-size="46.954px" y="-3568.6399" x="409.59" font-family="Arial"/>
 <text id="text80" style="word-spacing:0;letter-spacing:0" font-size="129.23px" line-height="125%" y="-882.31" x="1434.04" font-family="Gentium Book Basic">
  <tspan id="tspan82" y="-882.31" x="1434.04"/>
 </text>
 <text id="text84" style="text-anchor:middle" transform="scale(4.0128 .2492)" font-size="46.954px" y="-3889.6699" x="554.44" font-family="Arial"/>
 <g id="g86" style="word-spacing:0;letter-spacing:0" line-height="125%">
  <text id="text88" font-size="208.33px" y="532.40997" x="-398.76001" font-family="Gentium Book Basic">
   <tspan id="tspan90" y="532.40997" x="-398.76001"/>
  </text>
  <flowRoot id="flowRoot92" opacity=".25" transform="matrix(10.294 0 0 10.294 -911.29 -10326)">
   <flowRegion id="flowRegion94">
    <path id="0" d="m-53.03 6.634h57.629v49.32h-57.629z"/>
   </flowRegion>
   <flowPara id="flowPara97"/>
  </flowRoot>
  <flowRoot id="flowRoot99" transform="matrix(10.294 0 0 10.294 -2326.9 -10497)">
   <flowRegion id="flowRegion101">
    <use id="use103" xlink:href="#0" height="1" width="1" y="0" x="0"/>
   </flowRegion>
   <flowPara id="flowPara105"/>
  </flowRoot>
  <text id="text107" font-size="129.23px" y="19.563999" x="-936.40002" font-family="Gentium Book Basic">
   <tspan id="tspan109" y="19.563999" x="-936.40002"/>
  </text>
 </g>
 <text id="text111" style="text-anchor:middle" transform="scale(4.0128 .2492)" font-size="46.954px" y="-270.66" x="-36.27" font-family="Arial"/>
 <text id="text113" style="word-spacing:0;letter-spacing:0" font-size="129.23px" line-height="125%" y="-60.439999" x="-355.13" font-family="Gentium Book Basic">
  <tspan id="tspan115" y="-60.439999" x="-355.13"/>
 </text>
 <text id="text117" style="text-anchor:middle" transform="scale(4.0128 .2492)" font-size="46.954px" y="-591.69" x="108.58" font-family="Arial"/>
 <text id="text119" style="word-spacing:0;letter-spacing:0" font-size="129.23px" line-height="125%" y="-241.7" x="-1426.71" font-family="Gentium Book Basic">
  <tspan id="tspan121" y="-241.7" x="-1426.71"/>
 </text>
 <text id="text123" style="text-anchor:middle" transform="scale(4.0128 .2492)" font-size="46.954px" y="-1319.03" x="-158.46001" font-family="Arial"/>
 <text id="text125" style="word-spacing:0;letter-spacing:0" font-size="129.23px" line-height="125%" y="-458.17001" x="-328.66" font-family="Gentium Book Basic">
  <tspan id="tspan127" y="-458.17001" x="-328.66"/>
 </text>
 <text id="text129" style="text-anchor:middle" transform="scale(4.0128 .2492)" font-size="46.954px" y="-2187.7" x="115.18" font-family="Arial"/>
 <text id="text131" style="word-spacing:0;letter-spacing:0" font-size="129.23px" line-height="125%" y="-538.17999" x="252.61" font-family="Gentium Book Basic">
  <tspan id="tspan133" y="-538.17999" x="252.61"/>
 </text>
 <text id="text135" style="text-anchor:middle" transform="scale(4.0128 .2492)" font-size="46.954px" y="-2508.74" x="260.01999" font-family="Arial"/>
 <text id="text137" style="word-spacing:0;letter-spacing:0" font-size="129.23px" line-height="125%" y="-1010.58" x="-136.50999" font-family="Gentium Book Basic">
  <tspan id="tspan139" y="-1010.58" x="-136.50999"/>
 </text>
 <text id="text141" style="text-anchor:middle" transform="scale(4.0128 .2492)" font-size="46.954px" y="-4404.3799" x="163.06" font-family="Arial"/>
 <text id="text143" style="word-spacing:0;letter-spacing:0" font-size="129.23px" line-height="125%" y="-1090.58" x="444.75" font-family="Gentium Book Basic">
  <tspan id="tspan145" y="-1090.58" x="444.75"/>
 </text>
 <text id="text147" style="text-anchor:middle" transform="scale(4.0128 .2492)" font-size="46.954px" y="-4725.3999" x="307.89999" font-family="Arial"/>
 <text id="text149" style="word-spacing:0;letter-spacing:0" font-size="208.33px" line-height="125%" y="324.14001" x="-1388.05" font-family="Gentium Book Basic">
  <tspan id="tspan151" y="324.14001" x="-1388.05"/>
 </text>
 <g id="g153" style="color:#000000">
  <path id="path155" d="m399.95 110.69c-97.85 0.232-195.77-0.473-293.58 0.373-22.267 4.262-33.811 29.14-32.32 49.989 0.35 67.69-0.928 135.46 0.705 203.11 2.579 19.749 19.12 40 40.489 37.705 97.27-0.389 194.63 0.8 291.84-0.618 22.11-5.04 32.869-30.14 31.32-51.19-0.457-67.31 0.945-134.69-0.742-201.95-2.75-18.452-17.216-38.28-37.709-37.419" fill="#ae3d5a"/>
  <path id="path157" d="m253.72 183.82c-39.37 56.963-93.73 103.59-156.19 133.5 0.116 10.992 0.274 21.992 0.539 32.98 2.248 17.213 16.682 34.86 35.3 32.856 84.77-0.339 169.62 0.697 254.34-0.539 19.269-4.392 28.65-26.25 27.3-44.596-0.037-5.485-0.07-10.983-0.083-16.469-64.67-30.592-121.23-78.4-161.21-137.73" fill="#fff"/>
 </g>
 <g id="g159" fill="#fff">
  <path id="path161" d="m295.2 129.4c28.328 50.01 69.881 91.56 119.89 119.89 0.069-29.11-0.017-58.21-0.747-87.28-2.396-16.08-14.995-33.36-32.856-32.607-28.76 0.068-57.52 0.034-86.29 0"/>
  <path id="path163" d="m189.58 129.4c-21.322 0.049-42.655 0.147-63.969 0.332-19.406 3.715-29.471 25.387-28.17 43.558 0.123 23.749 0.038 47.51-0.041 71.27 47.793-27.55 87.66-67.36 115.2-115.16-7.675 0.007-15.35-0.018-23.02 0"/>
  <path id="path165" d="m237.25 129.36c-31.65 59.03-81.02 108.17-139.93 139.97-0.008 8.05 0.013 16.09 0.041 24.14 70.14-35.548 128.7-93.8 163.9-164.07-8.01-0.012-16.01-0.038-24.02-0.041"/>
 </g>
 <path id="path167" d="m278.36 143.09c-3.771 7.206-7.772 14.289-11.989 21.24 36.29 56.756 88.21 103.49 148.6 133.37 0.016-8 0.013-16.02 0.041-24.02-56.5-29.764-104.3-75.56-136.65-130.59"/>
 <path id="path169" d="m278.36 143.09c-3.771 7.206-7.772 14.289-11.989 21.24 36.29 56.756 88.21 103.49 148.6 133.37 0.016-8 0.013-16.02 0.041-24.02-56.5-29.764-104.3-75.56-136.65-130.59" fill="#fff"/>
</svg>
